X: 113
T:Gentleman's Delight
T:Duke of Buckingham
M:2/2
L:1/8
Z:alf.warnock@gmail.com
K:C
G2 | "C"c2 G2c2g2 | "Am"e3dc2de | "Dm"f2e2d2c2 | "G"defed2G2 |
"C"c2G2c2g2 | "Am"e3fg2c2 | "F"a2g2 "Dm"f2e2 | "G"d6 :|
|: g2 | "C"e3dc2g2 | "Am"e3dc2G2 | "Dm"ABc2f2e2 | "G"dcded2g2 |
"C"e3dc2G2 | "F"A3Bc2a2 | "Dm"g2fe "G"d3c | "C"c6 :|

